X: 16639
T: Hanka's
R: polka
M: 2/4
K: Bminor
|:fb dB|fd B>c|dB dB|fa e2|
fa ea|fd c2|B/c/d cA|B2 B2:|
|:B/c/d B/c/d|cA F2|B/c/d B/c/d|ea f2|
fb dB|fd B2|B/c/d cA|B2 B2:|

